assets/images/asientos-off.svg

<svg width="31" height="30" viewBox="0 0 31 30" fill="none" xmlns="http://www.w3.org/2000/svg">
<rect x="0.5" width="30" height="30" rx="15" fill="#B5BAC7"/>
<path fill-rule="evenodd" clip-rule="evenodd" d="M14.4881 19.8524H12.6746L10.0202 9.36264C9.97897 9.20602 9.99957 9.04114 10.082 8.89689C10.1645 8.75259 10.3004 8.6496 10.4612 8.60839L13.1362 8.01896C13.4536 7.9365 13.7915 8.13021 13.8822 8.45996L14.7395 11.642C14.7808 11.8027 14.7601 11.9675 14.6777 12.1118C14.5953 12.2561 14.4593 12.3591 14.2985 12.4003L14.2655 12.4127L15.2589 16.3407H20.0483C20.5759 16.3407 21.0004 16.7652 21.0004 17.2887V19.8524H18.2141V22H17.5134V19.8524H15.1888V22H14.4881V19.8524ZM13.2227 19.1517H20.2956V17.2804C20.2956 17.1444 20.1802 17.0331 20.0442 17.0331H14.7107L13.4288 11.9593L14.0388 11.7409L13.2227 8.71143L10.7209 9.26373L13.2227 19.1517Z" fill="#FAFBFD"/>
</svg>

<svg xmlns="http://www.w3.org/2000/svg" width="31" height="30" fill="none"><rect width="30" height="30" x=".5" fill="#B5BAC7" rx="15"/><path fill="#FAFBFD" fill-rule="evenodd" d="M14.488 19.852h-1.813L10.02 9.362a.616.616 0 0 1 .441-.754l2.675-.589a.62.62 0 0 1 .746.441l.857 3.182c.042.16.021.325-.061.47a.6.6 0 0 1-.38.288l-.033.013.994 3.928h4.79c.527 0 .951.424.951.948v2.563h-2.786V22h-.7v-2.148h-2.325V22h-.7zm-1.265-.7h7.073V17.28a.25.25 0 0 0-.252-.247h-5.333l-1.282-5.074.61-.218-.816-3.03-2.502.553z" clip-rule="evenodd"/></svg>
